X: 10093
T: POOR GIRL
C:
%R: reel
B: Elias Howe "The Musician's Companion" Part 1 1842 p.9 #3
S: http://imslp.org/wiki/The_Musician's_Companion_(Howe,_Elias)
Z: 2015 John Chambers <jc:trillian.mit.edu>
N: In the book, bars 5,6 are one bar with "Bis" above.
M: C
L: 1/8
K: D
% - - - - - - - - - - - - - - - - - - - - - - - - -
|:\
d2fd ceAe | d2fd ceAe |\
dcde fgaf | edcB cAec |\
d2fd ceAe | d2fd ceAe |
dcde fgaf | edcB A2A2 :|\
|:\
fdfa g2g2 | eceg f2f2 |\
dfaf dfbg | fedc d2d2 :|\
|:\
F2G2 A3B |
AFED GFED |\
F2G2 A3B | AGFE D2D2 :|\
|:\
ggbg fgaf | gfed cBcA |\
ggbg fgaf | gedc d2d2 :|
% - - - - - - - - - - - - - - - - - - - - - - - - -


